assets/icons/standard/related_list.svg

<?xml version="1.0"?><svg xmlns="http://www.w3.org/2000/svg" width="100" height="100" viewBox="0 0 100 100"><path fill="#fff" d="m74 20h-32c-3.3 0-6 2.7-6 6v1c0 0.5 0.4 1 1 1h29c3.3 0 6 2.7 6 6v31c0 0.5 0.4 1 1 1 3.8 0 7-3.1 7-7v-33c0-3.3-2.7-6-6-6z m-46 14c-3.3 0-6 2.7-6 6v34c0 3.3 2.7 6 6 6h32c3.3 0 6-2.7 6-6v-34c0-3.3-2.7-6-6-6h-32z m8 14c0 1.1-0.9 2-2 2h-2c-1.1 0-2-0.9-2-2v-2c0-1.1 0.9-2 2-2h2c1.1 0 2 0.9 2 2v2z m22 0c0 1.1-0.9 2-2 2h-14c-1.1 0-2-0.9-2-2v-2c0-1.1 0.9-2 2-2h14c1.1 0 2 0.9 2 2v2z m-22 10c0 1.1-0.9 2-2 2h-2c-1.1 0-2-0.9-2-2v-2c0-1.1 0.9-2 2-2h2c1.1 0 2 0.9 2 2v2z m22 0c0 1.1-0.9 2-2 2h-14c-1.1 0-2-0.9-2-2v-2c0-1.1 0.9-2 2-2h14c1.1 0 2 0.9 2 2v2z m-22 10c0 1.1-0.9 2-2 2h-2c-1.1 0-2-0.9-2-2v-2c0-1.1 0.9-2 2-2h2c1.1 0 2 0.9 2 2v2z m22 0c0 1.1-0.9 2-2 2h-14c-1.1 0-2-0.9-2-2v-2c0-1.1 0.9-2 2-2h14c1.1 0 2 0.9 2 2v2z"></path></svg>

<svg xmlns="http://www.w3.org/2000/svg" x="0px" y="0px" width="100" height="100"
	 viewBox="0 0 100 100" style="enable-background:new 0 0 100 100;" xml:space="preserve">

<g>
	<path fill="#FFFFFF" d="M74,20H42c-3.3,0-6,2.7-6,6v1c0,0.5,0.4,1,1,1h29c3.3,0,6,2.7,6,6v31c0,0.5,0.4,1,1,1H73c3.8,0,7-3.1,7-7V26
		C80,22.7,77.3,20,74,20z"/>
</g>
<g>
	<path fill="#FFFFFF" d="M28,34c-3.3,0-6,2.7-6,6v34c0,3.3,2.7,6,6,6h32c3.3,0,6-2.7,6-6V40c0-3.3-2.7-6-6-6H28z M36,48
		c0,1.1-0.9,2-2,2h-2c-1.1,0-2-0.9-2-2v-2c0-1.1,0.9-2,2-2h2c1.1,0,2,0.9,2,2V48z M58,48c0,1.1-0.9,2-2,2H42c-1.1,0-2-0.9-2-2v-2
		c0-1.1,0.9-2,2-2h14c1.1,0,2,0.9,2,2V48z M36,58c0,1.1-0.9,2-2,2h-2c-1.1,0-2-0.9-2-2v-2c0-1.1,0.9-2,2-2h2c1.1,0,2,0.9,2,2V58z
		 M58,58c0,1.1-0.9,2-2,2H42c-1.1,0-2-0.9-2-2v-2c0-1.1,0.9-2,2-2h14c1.1,0,2,0.9,2,2V58z M36,68c0,1.1-0.9,2-2,2h-2
		c-1.1,0-2-0.9-2-2v-2c0-1.1,0.9-2,2-2h2c1.1,0,2,0.9,2,2V68z M58,68c0,1.1-0.9,2-2,2H42c-1.1,0-2-0.9-2-2v-2c0-1.1,0.9-2,2-2h14
		c1.1,0,2,0.9,2,2V68z"/>
</g>
</svg>
